polaris-icons/icons/newicons/ShopcodesMajor.svg

<svg width="20" height="20" viewBox="0 0 20 20" fill="none" xmlns="http://www.w3.org/2000/svg">
<path d="M5.5 6C5.5 5.72386 5.72386 5.5 6 5.5H6.5C6.77614 5.5 7 5.72386 7 6V6.5C7 6.77614 6.77614 7 6.5 7H6C5.72386 7 5.5 6.77614 5.5 6.5V6Z" fill="black"/>
<path fill-rule="evenodd" clip-rule="evenodd" d="M5 3C3.89543 3 3 3.89543 3 5V7.5C3 8.60457 3.89543 9.5 5 9.5H7.5C8.60457 9.5 9.5 8.60457 9.5 7.5V5C9.5 3.89543 8.60457 3 7.5 3H5ZM7.5 4.5H5C4.72386 4.5 4.5 4.72386 4.5 5V7.5C4.5 7.77614 4.72386 8 5 8H7.5C7.77614 8 8 7.77614 8 7.5V5C8 4.72386 7.77614 4.5 7.5 4.5Z" fill="black"/>
<path d="M6 13C5.72386 13 5.5 13.2239 5.5 13.5V14C5.5 14.2761 5.72386 14.5 6 14.5H6.5C6.77614 14.5 7 14.2761 7 14V13.5C7 13.2239 6.77614 13 6.5 13H6Z" fill="black"/>
<path fill-rule="evenodd" clip-rule="evenodd" d="M5 10.5C3.89543 10.5 3 11.3954 3 12.5V15C3 16.1046 3.89543 17 5 17H7.5C8.60457 17 9.5 16.1046 9.5 15V12.5C9.5 11.3954 8.60457 10.5 7.5 10.5H5ZM7.5 12H5C4.72386 12 4.5 12.2239 4.5 12.5V15C4.5 15.2761 4.72386 15.5 5 15.5H7.5C7.77614 15.5 8 15.2761 8 15V12.5C8 12.2239 7.77614 12 7.5 12Z" fill="black"/>
<path d="M13 6C13 5.72386 13.2239 5.5 13.5 5.5H14C14.2761 5.5 14.5 5.72386 14.5 6V6.5C14.5 6.77614 14.2761 7 14 7H13.5C13.2239 7 13 6.77614 13 6.5V6Z" fill="black"/>
<path fill-rule="evenodd" clip-rule="evenodd" d="M10.5 5C10.5 3.89543 11.3954 3 12.5 3H15C16.1046 3 17 3.89543 17 5V7.5C17 8.60457 16.1046 9.5 15 9.5H12.5C11.3954 9.5 10.5 8.60457 10.5 7.5V5ZM12.5 4.5H15C15.2761 4.5 15.5 4.72386 15.5 5V7.5C15.5 7.77614 15.2761 8 15 8H12.5C12.2239 8 12 7.77614 12 7.5V5C12 4.72386 12.2239 4.5 12.5 4.5Z" fill="black"/>
<path d="M11.5 11C11.2239 11 11 11.2239 11 11.5V12.5C11 12.7761 11.2239 13 11.5 13H12.5C12.7761 13 13 12.7761 13 12.5V11.5C13 11.2239 12.7761 11 12.5 11H11.5Z" fill="black"/>
<path d="M11 15.5C11 15.2239 11.2239 15 11.5 15H12.5C12.7761 15 13 15.2239 13 15.5V16.5C13 16.7761 12.7761 17 12.5 17H11.5C11.2239 17 11 16.7761 11 16.5V15.5Z" fill="black"/>
<path d="M15.5 11C15.2239 11 15 11.2239 15 11.5V12.5C15 12.7761 15.2239 13 15.5 13H16.5C16.7761 13 17 12.7761 17 12.5V11.5C17 11.2239 16.7761 11 16.5 11H15.5Z" fill="black"/>
<path d="M15 15.5C15 15.2239 15.2239 15 15.5 15H16.5C16.7761 15 17 15.2239 17 15.5V16.5C17 16.7761 16.7761 17 16.5 17H15.5C15.2239 17 15 16.7761 15 16.5V15.5Z" fill="black"/>
<path d="M13.5 13C13.2239 13 13 13.2239 13 13.5V14.5C13 14.7761 13.2239 15 13.5 15H14.5C14.7761 15 15 14.7761 15 14.5V13.5C15 13.2239 14.7761 13 14.5 13H13.5Z" fill="black"/>
</svg>

<svg viewBox="0 0 20 20" fill="none" xmlns="http://www.w3.org/2000/svg"><path d="M5.5 6a.5.5 0 0 1 .5-.5h.5a.5.5 0 0 1 .5.5v.5a.5.5 0 0 1-.5.5h-.5a.5.5 0 0 1-.5-.5v-.5Z" fill="#5C5F62"/><path fill-rule="evenodd" clip-rule="evenodd" d="M5 3a2 2 0 0 0-2 2v2.5a2 2 0 0 0 2 2h2.5a2 2 0 0 0 2-2v-2.5a2 2 0 0 0-2-2h-2.5Zm2.5 1.5h-2.5a.5.5 0 0 0-.5.5v2.5a.5.5 0 0 0 .5.5h2.5a.5.5 0 0 0 .5-.5v-2.5a.5.5 0 0 0-.5-.5Z" fill="#5C5F62"/><path d="M6 13a.5.5 0 0 0-.5.5v.5a.5.5 0 0 0 .5.5h.5a.5.5 0 0 0 .5-.5v-.5a.5.5 0 0 0-.5-.5h-.5Z" fill="#5C5F62"/><path fill-rule="evenodd" clip-rule="evenodd" d="M5 10.5a2 2 0 0 0-2 2v2.5a2 2 0 0 0 2 2h2.5a2 2 0 0 0 2-2v-2.5a2 2 0 0 0-2-2h-2.5Zm2.5 1.5h-2.5a.5.5 0 0 0-.5.5v2.5a.5.5 0 0 0 .5.5h2.5a.5.5 0 0 0 .5-.5v-2.5a.5.5 0 0 0-.5-.5Z" fill="#5C5F62"/><path d="M13 6a.5.5 0 0 1 .5-.5h.5a.5.5 0 0 1 .5.5v.5a.5.5 0 0 1-.5.5h-.5a.5.5 0 0 1-.5-.5v-.5Z" fill="#5C5F62"/><path fill-rule="evenodd" clip-rule="evenodd" d="M10.5 5a2 2 0 0 1 2-2h2.5a2 2 0 0 1 2 2v2.5a2 2 0 0 1-2 2h-2.5a2 2 0 0 1-2-2v-2.5Zm2-.5h2.5a.5.5 0 0 1 .5.5v2.5a.5.5 0 0 1-.5.5h-2.5a.5.5 0 0 1-.5-.5v-2.5a.5.5 0 0 1 .5-.5Z" fill="#5C5F62"/><path d="M11.5 11a.5.5 0 0 0-.5.5v1a.5.5 0 0 0 .5.5h1a.5.5 0 0 0 .5-.5v-1a.5.5 0 0 0-.5-.5h-1Z" fill="#5C5F62"/><path d="M11 15.5a.5.5 0 0 1 .5-.5h1a.5.5 0 0 1 .5.5v1a.5.5 0 0 1-.5.5h-1a.5.5 0 0 1-.5-.5v-1Z" fill="#5C5F62"/><path d="M15.5 11a.5.5 0 0 0-.5.5v1a.5.5 0 0 0 .5.5h1a.5.5 0 0 0 .5-.5v-1a.5.5 0 0 0-.5-.5h-1Z" fill="#5C5F62"/><path d="M15 15.5a.5.5 0 0 1 .5-.5h1a.5.5 0 0 1 .5.5v1a.5.5 0 0 1-.5.5h-1a.5.5 0 0 1-.5-.5v-1Z" fill="#5C5F62"/><path d="M13.5 13a.5.5 0 0 0-.5.5v1a.5.5 0 0 0 .5.5h1a.5.5 0 0 0 .5-.5v-1a.5.5 0 0 0-.5-.5h-1Z" fill="#5C5F62"/></svg>
